!!!OTL: Alexius (2-14) S. 49
!!!id: P0887
**kern
*clefG2
*k[b-]
*F:
{8f
=1
8f
8a
8a
8a
=2
4a
8r
8cc
=3
4b-
8a
16g
16b-
=4
4a}
8r
=5
{8a
=6
8a
8g
8a
8b-
=7
8cc
8dd
8cc
8b-
=8
4a
8.g
16f
=9
4f}
8r
==
*-
!!!minrhy: 16
!!!meters: 2/4 ]  ZZ[2
!!!cut: Alexius (2-14) S. 49
!!!reg: Lothringen
!!!trd: PINCK, Louis: Verklingende Weisen, Bd 2, Metz 1928
!!!rhy1: X_  X_X_X_X_  X__0_X_  X__X_XX  X__0_
!!!rhy2: X_  X_X_X_X_  X_X_X_X_  X__X_.X  X__0_ // 
!!!key: P0887  16  F 2/4 ]  ZZ[2
!!!mod: SECHSTONSKALA DUR ?]  AMBITUS[6
!!!kad: 31
!!!akz: 1343_3531_
!!!fot: 'a__b__
!!!for: 'a__b__
!!!fok: '^a_^d_
!! PHRAS[AUFTAKTIG]
!!!fkt: geistliche, religiöse Lieder
!! LOTH VKL
!! PR[12] 2K[5] 2G[15] 3K[3] 3G[8] 4A[5] 4Ü[0] 5A[0] 6K[0] 6G[0]
!! 7K[3] 7G[0] 8A[0] MEHR[0] SI[38] ABS[78] SR[21] SP[18]
!! ST[24] 2k[5] 2g[28] 3k[10] 3g[5] 4d[1] 4ü[0] 5d[0] 6k[0] 6g[0]
!! 7k[0] 7g[0] 8d[0] mehr[0] si[50] dm[-12] sr[33] sp[17]
!! 1F[1] 2F[37] 3F[48] 4F[5] LF[0] 2P[1] 3P[7] 4P[0] TRI[0] DF[6] AB[81]
!! TF[0] U3K[0] U3[0] U4[3] U4Ü[0] U5[13] U6K[0] U6[18] U7K[0] U7[8]
!! N1[24] N2K[0] N2[18] N3K[0] N3[13] N4[5] N4Ü[0] N5[0] N6K[0] N6[0]
!!!n7k: 0] N7[0] O1[0] O2K[0] O2[0] O3K[0] O3[0] HÖ[0
